static/images/ojai0wpvwsh20ddyx962vqe64b8vwyx.pp3

[Version]
AppVersion=4.0.11.32
Version=309

[General]
Rank=0
ColorLabel=0
InTrash=false

[Exposure]
Auto=false
Clip=0
Compensation=0.56657223796034017
Brightness=0
Contrast=28
Saturation=5
Black=0
HighlightCompr=12
HighlightComprThreshold=33
ShadowCompr=50
CurveMode=Standard
CurveMode2=Standard
Curve=0;
Curve2=0;

[Channel Mixer]
Red=100;0;0;
Green=0;100;0;
Blue=0;0;100;

[Luminance Curve]
Brightness=0
Contrast=0
Chromaticity=5
AvoidColorShift=true
RedAndSkinTonesProtection=0
BWtoning=false
LCredsk=true
LCurve=0;
aCurve=0;
bCurve=0;
ccCurve=0;
chCurve=0;
LcCurve=0;

[Sharpening]
Enabled=false
Method=usm
Radius=0.5
Amount=250
Threshold=512;512;2000;2000;
OnlyEdges=false
EdgedetectionRadius=1.8999999999999999
EdgeTolerance=1800
HalocontrolEnabled=false
HalocontrolAmount=85
DeconvRadius=0.75
DeconvAmount=75
DeconvDamping=20
DeconvIterations=30

[Vibrance]
Enabled=true
Pastels=-20
Saturated=-20
PSThreshold=75;75;
ProtectSkins=false
AvoidColorShift=true
PastSatTog=true
SkinTonesCurve=0;

[SharpenEdge]
Enabled=false
Passes=2
Strength=50
ThreeChannels=false

[SharpenMicro]
Enabled=false
Matrix=false
Strength=20
Uniformity=50

[White Balance]
Setting=Camera
Temperature=6000
Green=0.94099999999999995
Equal=1

[Color appearance]
Enabled=false
Degree=90
AutoDegree=true
Surround=Average
AdaptLum=16
Badpixsl=0
Model=RawT
Algorithm=JC
J-Light=0
Q-Bright=0
C-Chroma=0
S-Chroma=0
M-Chroma=0
J-Contrast=0
Q-Contrast=0
H-Hue=0
RSTProtection=0
AdaptScene=2000
AutoAdapscen=true
SurrSource=false
Gamut=true
Datacie=false
Tonecie=false
CurveMode=Lightness
CurveMode2=Lightness
CurveMode3=Chroma
Curve=0;
Curve2=0;
Curve3=0;

[Impulse Denoising]
Enabled=true
Threshold=50

[Defringing]
Enabled=false
Radius=2
Threshold=25
HueCurve=1;0.16666666699999999;0;0.34999999999999998;0.34999999999999998;0.34699999999999998;0;0.34999999999999998;0.34999999999999998;0.51366742600000004;0;0.34999999999999998;0.34999999999999998;0.66894457100000004;0;0.34999999999999998;0.34999999999999998;0.82877752459999998;0.97835991;0.34999999999999998;0.34999999999999998;0.99088838270000001;0;0.34999999999999998;0.34999999999999998;

[Directional Pyramid Denoising]
Enabled=true
Luma=12
Ldetail=50
Chroma=12
Method=RGB
Redchro=0
Bluechro=0
Gamma=2

[EPD]
Enabled=false
Strength=0.25
EdgeStopping=1.3999999999999999
Scale=1
ReweightingIterates=0

[Shadows & Highlights]
Enabled=false
HighQuality=false
Highlights=10
HighlightTonalWidth=80
Shadows=10
ShadowTonalWidth=80
LocalContrast=0
Radius=30

[Crop]
Enabled=false
X=0
Y=0
W=4088
H=3076
FixedRatio=false
Ratio=3:2
Orientation=Landscape
Guide=None

[Coarse Transformation]
Rotate=0
HorizontalFlip=false
VerticalFlip=false

[Common Properties for Transformations]
AutoFill=false

[Rotation]
Degree=0

[Distortion]
Amount=0

[LensProfile]
LCPFile=
UseDistortion=true
UseVignette=true
UseCA=false

[Perspective]
Horizontal=0
Vertical=0

[CACorrection]
Red=0
Blue=0

[Vignetting Correction]
Amount=0
Radius=50
Strength=1
CenterX=0
CenterY=0

[HLRecovery]
Enabled=true
Method=Blend

[Resize]
Enabled=false
Scale=1
AppliesTo=Cropped area
Method=Bicubic
DataSpecified=0
Width=4088
Height=3076

[Color Management]
InputProfile=(camera)
ToneCurve=false
BlendCMSMatrix=true
PreferredProfile=true
WorkingProfile=sRGB
OutputProfile=RT_sRGB
Gammafree=default
Freegamma=false
GammaValue=2.2200000000000002
GammaSlope=4.5

[Directional Pyramid Equalizer]
Enabled=true
Mult0=3
Mult1=1
Mult2=1
Mult3=1
Mult4=0.20000000000000001

[HSV Equalizer]
HCurve=0;
SCurve=0;
VCurve=0;

[RGB Curves]
LumaMode=false
rCurve=0;
gCurve=0;
bCurve=0;

[RAW]
DarkFrame=
DarkFrameAuto=false
FlatFieldFile=
FlatFieldAutoSelect=false
FlatFieldBlurRadius=32
FlatFieldBlurType=Area Flatfield
CA=false
CARed=0
CABlue=0
HotDeadPixels=false
HotDeadPixelThresh=40
LineDenoise=0
GreenEqThreshold=0
CcSteps=1
Method=amaze
DCBIterations=2
DCBEnhance=false
LMMSEIterations=2
PreExposure=1
PrePreserv=0
PreBlackzero=0
PreBlackone=0
PreBlacktwo=0
PreBlackthree=0
PreTwoGreen=true
