static/images/Truck-tunnel.pp3
[Version]
AppVersion=5.9-721-g30a1bf05b
Version=350

[General]
ColorLabel=0
InTrash=false

[Exposure]
Auto=false
Clip=0.02
Compensation=0
Brightness=0
Contrast=0
Saturation=0
Black=0
HighlightCompr=0
HighlightComprThreshold=0
ShadowCompr=50
HistogramMatching=false
CurveFromHistogramMatching=false
ClampOOG=true
CurveMode=FilmLike
CurveMode2=Standard
Curve=4;0;0;0.050000000000000003;0.033794030270554137;0.12;0.10706991265460773;0.21799999999999997;0.26301438596790072;0.35519999999999996;0.51574293416304551;0.54727999999999999;0.7891408117067128;0.81619199999999992;0.97052822691432927;1;1;
Curve2=0;

[HLRecovery]
Enabled=true
Method=Coloropp
Hlbl=0
Hlth=1

[Retinex]
Enabled=false
Str=20
Scal=3
Iter=1
Grad=1
Grads=1
Gam=1.3
Slope=3
Median=false
Neigh=80
Offs=0
Vart=200
Limd=8
highl=4
skal=3
complexMethod=normal
RetinexMethod=high
mapMethod=none
viewMethod=none
Retinexcolorspace=Lab
Gammaretinex=none
CDCurve=0;
MAPCurve=0;
CDHCurve=0;
LHCurve=0;
Highlights=0
HighlightTonalWidth=80
Shadows=0
ShadowTonalWidth=80
Radius=40
TransmissionCurve=1;0;0.5;0.34999999999999998;0.34999999999999998;0.59999999999999998;0.75;0.34999999999999998;0.34999999999999998;1;0.5;0.34999999999999998;0.34999999999999998;
GainTransmissionCurve=1;0;0.10000000000000001;0.34999999999999998;0;0.25;0.25;0.34999999999999998;0.34999999999999998;0.69999999999999996;0.25;0.34999999999999998;0.34999999999999998;1;0.10000000000000001;0;0;

[Local Contrast]
Enabled=false
Radius=80
Amount=0.20000000000000001
Darkness=1
Lightness=1

[Channel Mixer]
Enabled=false
Red=1000;0;0;
Green=0;1000;0;
Blue=0;0;1000;

[Black & White]
Enabled=false
Method=Desaturation
Auto=false
ComplementaryColors=true
Setting=RGB-Rel
Filter=None
MixerRed=33
MixerOrange=33
MixerYellow=33
MixerGreen=33
MixerCyan=33
MixerBlue=33
MixerMagenta=33
MixerPurple=33
GammaRed=0
GammaGreen=0
GammaBlue=0
Algorithm=SP
LuminanceCurve=0;
BeforeCurveMode=Standard
AfterCurveMode=Standard
BeforeCurve=0;
AfterCurve=0;

[Luminance Curve]
Enabled=false
Brightness=0
Contrast=0
Chromaticity=0
Gamutmunse=MUN
RedAndSkinTonesProtection=0
LCredsk=true
LCurve=0;
aCurve=0;
bCurve=0;
ccCurve=0;
chCurve=0;
lhCurve=0;
hhCurve=0;
LcCurve=0;
ClCurve=0;

[Sharpening]
Enabled=false
Contrast=20
Method=usm
Radius=0.5
BlurRadius=0.20000000000000001
Amount=200
Threshold=20;80;2000;1200;
OnlyEdges=false
EdgedetectionRadius=1.8999999999999999
EdgeTolerance=1800
HalocontrolEnabled=false
HalocontrolAmount=85
DeconvRadius=0.75
DeconvAmount=100
DeconvDamping=0
DeconvIterations=30

[Vibrance]
Enabled=false
Pastels=0
Saturated=0
PSThreshold=0;75;
ProtectSkins=false
AvoidColorShift=true
PastSatTog=true
SkinTonesCurve=0;

[SharpenEdge]
Enabled=false
Passes=2
Strength=50
ThreeChannels=false

[SharpenMicro]
Enabled=false
Matrix=false
Strength=20
Contrast=20
Uniformity=5

[White Balance]
Enabled=true
Setting=autitcgreen
Temperature=5302
Green=1.0609999999999999
Equal=1
TemperatureBias=0
StandardObserver=TWO_DEGREES
Itcwb_green=0
Itcwb_rangegreen=1
Itcwb_nopurple=false
Itcwb_alg=false
Itcwb_prim=beta
Itcwb_sampling=false
CompatibilityVersion=2

[Color appearance]
Enabled=false
Degree=90
AutoDegree=true
Degreeout=90
AutoDegreeout=true
Surround=Average
complex=normal
ModelCat=16
CatCat=clas
Surrsrc=Average
AdaptLum=16
Badpixsl=0
Model=RawT
Illum=i50
Algorithm=JC
J-Light=0
Q-Bright=0
C-Chroma=0
S-Chroma=0
M-Chroma=0
J-Contrast=0
Q-Contrast=0
H-Hue=0
RSTProtection=0
AdaptScene=2000
AutoAdapscen=true
YbScene=18
Autoybscen=true
SurrSource=false
Gamut=true
Tempout=5003
Autotempout=true
Greenout=1
Tempsc=5003
Greensc=1
Ybout=18
Datacie=false
Tonecie=false
CurveMode=Lightness
CurveMode2=Brightness
CurveMode3=Chroma
Curve=0;
Curve2=0;
Curve3=0;

[Impulse Denoising]
Enabled=false
Threshold=50

[Defringing]
Enabled=false
Radius=2
Threshold=13
HueCurve=1;0.16666666699999999;0;0.34999999999999998;0.34999999999999998;0.34699999999999998;0;0.34999999999999998;0.34999999999999998;0.51366742600000004;0;0.34999999999999998;0.34999999999999998;0.66894457100000004;0;0.34999999999999998;0.34999999999999998;0.82877752459999998;0.97835991;0.34999999999999998;0.34999999999999998;0.99088838270000001;0;0.34999999999999998;0.34999999999999998;

[Dehaze]
Enabled=false
Strength=50
ShowDepthMap=false
Depth=25
Saturation=50

[Directional Pyramid Denoising]
Enabled=false
Enhance=false
Median=false
Luma=0
Ldetail=0
Chroma=15
Method=Lab
LMethod=SLI
CMethod=MAN
C2Method=AUTO
SMethod=shal
MedMethod=soft
RGBMethod=soft
MethodMed=Lonly
Redchro=0
Bluechro=0
AutoGain=true
Gamma=1.7
Passes=1
LCurve=1;0.050000000000000003;0.14999999999999999;0.34999999999999998;0.34999999999999998;0.55000000000000004;0.040000000000000001;0.34999999999999998;0.34999999999999998;
CCCurve=1;0.050000000000000003;0.5;0.34999999999999998;0.34999999999999998;0.34999999999999998;0.050000000000000003;0.34999999999999998;0.34999999999999998;

[EPD]
Enabled=false
Strength=0.5
Gamma=1
EdgeStopping=1.3999999999999999
Scale=1
ReweightingIterates=0

[FattalToneMapping]
Enabled=false
Threshold=30
Amount=20
Anchor=50

[Shadows & Highlights]
Enabled=false
Highlights=0
HighlightTonalWidth=70
Shadows=0
ShadowTonalWidth=30
Radius=40
Lab=false

[ToneEqualizer]
Enabled=false
Band0=0
Band1=0
Band2=0
Band3=0
Band4=0
Band5=0
Regularization=0
Pivot=0

[Crop]
Enabled=false
X=0
Y=0
W=6024
H=4024
FixedRatio=true
Ratio=As Image
Orientation=As Image
Guide=Frame

[Coarse Transformation]
Rotate=0
HorizontalFlip=false
VerticalFlip=false

[Common Properties for Transformations]
Method=log
AutoFill=true

[Rotation]
Degree=0

[Distortion]
Amount=0

[LensProfile]
LcMode=lfauto
LCPFile=
UseDistortion=true
UseVignette=false
UseCA=false
LFCameraMake=
LFCameraModel=
LFLens=

[Perspective]
Method=simple
Horizontal=0
Vertical=0
CameraCropFactor=0
CameraFocalLength=28
CameraPitch=0
CameraRoll=0
CameraShiftHorizontal=0
CameraShiftVertical=0
CameraYaw=0
ProjectionShiftHorizontal=0
ProjectionPitch=0
ProjectionRotate=0
ProjectionShiftVertical=0
ProjectionYaw=0
ControlLineValues=
ControlLineTypes=

[Gradient]
Enabled=false
Degree=0
Feather=25
Strength=0.59999999999999998
CenterX=0
CenterY=0

[Locallab]
Enabled=true
Selspot=0
Name_0=New Spot
Isvisible_0=true
PrevMethod_0=hide
Shape_0=RECT
SpotMethod_0=full
WavMethod_0=D4
SensiExclu_0=12
StructExclu_0=0
Struc_0=4
ShapeMethod_0=IND
AvoidgamutMethod_0=MUNS
Loc_0=3000;3000;3000;3000;
CenterX_0=-432
CenterY_0=502
Circrad_0=18
QualityMethod_0=enh
ComplexMethod_0=mod
Transit_0=100
Feather_0=25
Thresh_0=2
Iter_0=2
Balan_0=1
Balanh_0=1
Colorde_0=5
Colorscope_0=30
Avoidrad_0=0
Transitweak_0=1
Transitgrad_0=0
Hishow_0=false
Activ_0=true
Blwh_0=false
Recurs_0=false
Laplac_0=true
Deltae_0=true
Shortc_0=false
Savrest_0=false
Scopemask_0=60
Denoichmask_0=0
Lumask_0=10
Expcie_0=true
Expprecam_0=true
Complexcie_0=2
Reparcie_0=100
Sensicie_0=60
AutoGraycie_0=true
Forcejz_0=true
Forcebw_0=true
Qtoj_0=false
jabcie_0=true
comprcieauto_0=false
normcie_0=true
gamutcie_0=true
sigcie_0=true
logcie_0=false
Logjz_0=false
Sigjz_0=false
Sigq_0=false
chjzcie_0=true
SourceGraycie_0=12.5
Sourceabscie_0=160
Sursourcie_0=Average
Modecie_0=com
Modecam_0=cam16
bwevMethod_0=sig
Saturlcie_0=0
Rstprotectcie_0=0
Chromlcie_0=0
Huecie_0=0
ToneMethodcie_0=one
Ciecurve_0=3;0;0;1;1;
ToneMethodcie2_0=onec
Ciecurve2_0=3;0;0;1;1;
Chromjzcie_0=0
Saturjzcie_0=0
Huejzcie_0=0
Softjzcie_0=0
strSoftjzcie_0=100
Thrhjzcie_0=60
JzCurve_0=3;0;0;1;1;
CzCurve_0=3;0;0;1;1;
CzJzCurve_0=3;0;0;1;1;
HHCurvejz_0=1;0;0.5;0.34999999999999998;0.34999999999999998;0.16600000000000001;0.5;0.34999999999999998;0.34999999999999998;0.33300000000000002;0.5;0.34999999999999998;0.34999999999999998;0.5;0.5;0.34999999999999998;0.34999999999999998;0.66600000000000004;0.5;0.34999999999999998;0.34999999999999998;0.83299999999999996;0.5;0.34999999999999998;0.34999999999999998;
CHCurvejz_0=1;0;0.5;0.34999999999999998;0.34999999999999998;0.16600000000000001;0.5;0.34999999999999998;0.34999999999999998;0.33300000000000002;0.5;0.34999999999999998;0.34999999999999998;0.5;0.5;0.34999999999999998;0.34999999999999998;0.66600000000000004;0.5;0.34999999999999998;0.34999999999999998;0.83299999999999996;0.5;0.34999999999999998;0.34999999999999998;
LHCurvejz_0=1;0;0.5;0.34999999999999998;0.34999999999999998;0.16600000000000001;0.5;0.34999999999999998;0.34999999999999998;0.33300000000000002;0.5;0.34999999999999998;0.34999999999999998;0.5;0.5;0.34999999999999998;0.34999999999999998;0.66600000000000004;0.5;0.34999999999999998;0.34999999999999998;0.83299999999999996;0.5;0.34999999999999998;0.34999999999999998;
Lightlcie_0=0
Lightjzcie_0=0
Brightqcie_0=0
Brightsigqcie_0=-17.5
Contlcie_0=0
Contjzcie_0=0
Adapjzcie_0=1.5
Jz100_0=0.25
PQremap_0=120
PQremapcam16_0=100
Hljzcie_0=0
Hlthjzcie_0=70
Shjzcie_0=0
Shthjzcie_0=40
Radjzcie_0=40
Sigmalcjz_0=1
Clarilresjz_0=0
Claricresjz_0=0
Clarisoftjz_0=0
LocwavCurvejz_0=1;0;0.5;0.34999999999999998;0.34999999999999998;1;0.5;0.34999999999999998;0.34999999999999998;
CSThresholdjz_0=0;0;7;4;
Contthrescie_0=0
BlackEvjz_0=-10.4
WhiteEvjz_0=4.4000000000000004
Targetjz_0=18
Sigmoidldacie_0=0.5
Sigmoidthcie_0=1.2
Sigmoidsenscie_0=0.90000000000000002
Sigmoidblcie_0=0.75
comprcie_0=0.59999999999999998
comprcieth_0=0
gamjcie_0=2.8999999999999999
slopjcie_0=80
midtcie_0=0
redxl_0=0.73470000000000002
redyl_0=0.26529999999999998
grexl_0=0.15959999999999999
greyl_0=0.84040000000000004
bluxl_0=0.036600000000000001
bluyl_0=0.0001
refi_0=0
shiftxl_0=0
shiftyl_0=0
labgridcieALow_0=0.51763486862182617
labgridcieBLow_0=-0.33581888675689697
labgridcieAHigh_0=-0.75163662433624268
labgridcieBHigh_0=-0.8180001974105835
labgridcieGx_0=-0.52800047397613525
labgridcieGy_0=0.70981645584106445
labgridcieWx_0=-0.18963718414306641
labgridcieWy_0=-0.16636449098587036
labgridcieMx_0=-0.17425376176834106
labgridcieMy_0=-0.18958395719528198
whitescie_0=0
blackscie_0=0
illMethod_0=d50
primMethod_0=pro
catMethod_0=brad
Sigmoidldajzcie_0=0.5
Sigmoidthjzcie_0=1
Sigmoidbljzcie_0=1
Contqcie_0=0
Contsigqcie_0=25
Colorflcie_0=0
Targabscie_0=16
TargetGraycie_0=18
Catadcie_0=0
Detailcie_0=30
Surroundcie_0=Average
EnacieMask_0=false
CCmaskcieCurve_0=1;0;1;0.34999999999999998;0.34999999999999998;0.5;1;0.34999999999999998;0.34999999999999998;1;1;0.34999999999999998;0.34999999999999998;
LLmaskcieCurve_0=1;0;1;0.34999999999999998;0.34999999999999998;0.5;1;0.34999999999999998;0.34999999999999998;1;1;0.34999999999999998;0.34999999999999998;
HHmaskcieCurve_0=1;0;1;0.34999999999999998;0.34999999999999998;0.5;1;0.34999999999999998;0.34999999999999998;1;1;0.34999999999999998;0.34999999999999998;
HHhmaskcieCurve_0=1;0;0.5;0.34999999999999998;0.34999999999999998;0.5;0.5;0.34999999999999998;0.34999999999999998;1;0.5;0.34999999999999998;0.34999999999999998;
Blendmaskcie_0=0
Radmaskcie_0=0
Chromaskcie_0=0
Lapmaskcie_0=0
Gammaskcie_0=1
Slomaskcie_0=0
LmaskcieCurve_0=3;0;0;1;1;
Recothrescie_0=1
Lowthrescie_0=12
Higthrescie_0=85
Decaycie_0=2
strumaskcie_0=0
toolcie_0=false
FftcieMask_0=true
contcie_0=0
blurcie_0=0.20000000000000001
highmaskcie_0=0
shadmaskcie_0=0
LLmaskcieCurvewav_0=1;0;0.5;0.34999999999999998;0.34999999999999998;1;0.5;0.34999999999999998;0.34999999999999998;
CSThresholdcie_0=0;0;6;5;

[PCVignette]
Enabled=false
Strength=0.59999999999999998
Feather=50
Roundness=50

[CACorrection]
Red=0
Blue=0

[Vignetting Correction]
Amount=0
Radius=50
Strength=1
CenterX=0
CenterY=0

[Resize]
Enabled=false
Scale=0.14999999999999999
AppliesTo=Cropped area
Method=Lanczos
DataSpecified=3
Width=900
Height=900
LongEdge=900
ShortEdge=900
AllowUpscaling=false

[PostDemosaicSharpening]
Enabled=true
Contrast=9
AutoContrast=true
AutoRadius=true
DeconvRadius=0.56000000000000005
DeconvRadiusOffset=0
DeconvIterCheck=true
DeconvIterations=20

[PostResizeSharpening]
Enabled=false
Contrast=15
Method=rld
Radius=0.5
Amount=200
Threshold=20;80;2000;1200;
OnlyEdges=false
EdgedetectionRadius=1.8999999999999999
EdgeTolerance=1800
HalocontrolEnabled=false
HalocontrolAmount=85
DeconvRadius=0.45000000000000001
DeconvAmount=100
DeconvDamping=0
DeconvIterations=100

[Color Management]
InputProfile=(cameraICC)
ToneCurve=false
ApplyLookTable=true
ApplyBaselineExposureOffset=true
ApplyHueSatMap=true
DCPIlluminant=0
WorkingProfile=ProPhoto
WorkingTRC=none
Will=D50
Wprim=def
Wcat=brad
WorkingTRCGamma=2.3999999999999999
WorkingTRCSlope=12.92
Redx=0.73470000000000002
Redy=0.26529999999999998
Grex=0.15959999999999999
Grey=0.84040000000000004
Blux=0.036600000000000001
Bluy=0.0001
Refi=0
LabGridcieALow=0.51763000000000003
LabGridcieBLow=-0.33582000000000001
LabGridcieAHigh=-0.75163000000000002
LabGridcieBHigh=-0.81799999999999995
LabGridcieGx=-0.69164000000000003
LabGridcieGy=-0.70909
LabGridcieWx=-0.18964
LabGridcieWy=-0.16636000000000001
LabGridcieMx=0
LabGridcieMy=0
Preser=0
Fbw=false
TrcExp=false
Gamut=true
OutputProfile=RTv4_sRGB
aIntent=Relative
OutputProfileIntent=Relative
OutputBPC=true

[Wavelet]
Enabled=false
Strength=100
Balance=0
Sigmafin=1
Sigmaton=1
Sigmacol=1
Sigmadir=1
Rangeab=20
Protab=0
Iter=0
MaxLev=7
TilesMethod=full
complexMethod=normal
mixMethod=mix7
sliMethod=sli
quaMethod=cons
DaubMethod=4_
ChoiceLevMethod=all
BackMethod=grey
LevMethod=4
DirMethod=all
CBgreenhigh=0
CBgreenmed=0
CBgreenlow=0
CBbluehigh=0
CBbluemed=0
CBbluelow=0
Ballum=7
Sigm=1
Levden=0
Thrden=0
Limden=0
Balchrom=0
Chromfine=0
Chromcoarse=0
MergeL=20
MergeC=20
Softrad=0
Softradend=0
Strend=50
Detend=0
Thrend=0
Expcontrast=false
Expchroma=false
Expedge=false
expbl=false
Expresid=false
Expfinal=false
Exptoning=false
Expnoise=false
Expclari=false
LabGridALow=0
LabGridBLow=0
LabGridAHigh=0
LabGridBHigh=0
Contrast1=0
Contrast2=0
Contrast3=0
Contrast4=0
Contrast5=0
Contrast6=0
Contrast7=0
Contrast8=0
Contrast9=0
Chroma1=0
Chroma2=0
Chroma3=0
Chroma4=0
Chroma5=0
Chroma6=0
Chroma7=0
Chroma8=0
Chroma9=0
ContExtra=0
HSMethod=with
HLRange=50;75;100;98;
SHRange=0;2;50;25;
Edgcont=0;10;75;40;
Level0noise=0;0;
Level1noise=0;0;
Level2noise=0;0;
Level3noise=0;0;
Leveldenoise=0;0;
Levelsigm=1;1;
ThresholdHighlight=4
ThresholdShadow=5
Edgedetect=90
Edgedetectthr=20
EdgedetectthrHi=0
Edgesensi=60
Edgeampli=10
ThresholdChroma=5
CHromaMethod=link
Medgreinf=less
Ushamethod=clari
CHSLromaMethod=SL
EDMethod=CU
NPMethod=none
BAMethod=none
TMMethod=cont
ChromaLink=0
ContrastCurve=1;0;0.25;0.34999999999999998;0.34999999999999998;0.5;0.75;0.34999999999999998;0.34999999999999998;0.90000000000000002;0;0.34999999999999998;0.34999999999999998;
blcurve=1;0;0;0;0.34999999999999998;0.5;0;0.34999999999999998;0.34999999999999998;1;0;0.34999999999999998;0.34999999999999998;
Pastlev=0;2;30;20;
Satlev=30;45;130;100;
OpacityCurveRG=1;0;0.5;0.34999999999999998;0.34999999999999998;1;0.5;0.34999999999999998;0.34999999999999998;
OpacityCurveBY=1;0;0.5;0.34999999999999998;0.34999999999999998;1;0.5;0.34999999999999998;0.34999999999999998;
wavdenoise=1;0;1;0.34999999999999998;0.34999999999999998;0.5;1;0.34999999999999998;0.34999999999999998;1;1;0.34999999999999998;0.34999999999999998;
wavdenoiseh=1;0;1;0.34999999999999998;0.34999999999999998;0.5;1;0.34999999999999998;0.34999999999999998;1;1;0.34999999999999998;0.34999999999999998;
OpacityCurveW=1;0;0.34999999999999998;0.34999999999999998;0;0.34999999999999998;0.75;0.34999999999999998;0.34999999999999998;0.59999999999999998;0.75;0.34999999999999998;0.34999999999999998;1;0.34999999999999998;0;0;
OpacityCurveWL=1;0;0.5;0.34999999999999998;0.34999999999999998;1;0.5;0.34999999999999998;0.34999999999999998;
HHcurve=0;
Wavguidcurve=0;
Wavhuecurve=0;
CHcurve=0;
WavclCurve=0;
Median=false
Medianlev=false
Linkedg=false
CBenab=false
Lipst=false
Skinprotect=0
chrwav=0
bluwav=1
Hueskin=-5;25;170;120;
Edgrad=15
Edgeffect=1
Edgval=0
ThrEdg=10
AvoidColorShift=false
Showmask=false
Oldsh=true
TMr=false
Sigma=1
Offset=1
Lowthr=40
ResidualcontShadow=0
ResidualcontHighlight=0
ThresholdResidShadow=30
ThresholdResidHighLight=70
Residualradius=40
Residualchroma=0
Residualblur=0
Residualblurc=0
ResidualTM=0
ResidualEDGS=1.3999999999999999
ResidualSCALE=1
Residualgamma=1
HueRangeResidual=0
HueRange=-260;-250;-130;-140;
Contrast=0

[Spot removal]
Enabled=false

[Directional Pyramid Equalizer]
Enabled=false
Gamutlab=false
cbdlMethod=bef
Mult0=1
Mult1=1
Mult2=1
Mult3=1
Mult4=1
Mult5=1
Threshold=0.20000000000000001
Skinprotect=0
Hueskin=-5;25;170;120;

[HSV Equalizer]
Enabled=false
HCurve=0;
SCurve=0;
VCurve=0;

[SoftLight]
Enabled=false
Strength=30

[Film Simulation]
Enabled=false
ClutFilename=
Strength=100

[RGB Curves]
Enabled=false
LumaMode=false
rCurve=0;
gCurve=0;
bCurve=0;

[ColorToning]
Enabled=false
Method=LabRegions
Lumamode=true
Twocolor=Std
Redlow=0
Greenlow=0
Bluelow=0
Satlow=0
Balance=0
Sathigh=0
Redmed=0
Greenmed=0
Bluemed=0
Redhigh=0
Greenhigh=0
Bluehigh=0
Autosat=true
OpacityCurve=1;0;0.29999999999999999;0.34999999999999998;0;0.25;0.80000000000000004;0.34999999999999998;0.34999999999999998;0.69999999999999996;0.80000000000000004;0.34999999999999998;0.34999999999999998;1;0.29999999999999999;0;0;
ColorCurve=1;0.050000000000000003;0.62;0.25;0.25;0.58499999999999996;0.11;0.25;0.25;
SatProtectionThreshold=30
SaturatedOpacity=80
Strength=50
HighlightsColorSaturation=60;80;
ShadowsColorSaturation=80;208;
ClCurve=3;0;0;0.34999999999999998;0.65000000000000002;1;1;
Cl2Curve=3;0;0;0.34999999999999998;0.65000000000000002;1;1;
LabGridALow=0
LabGridBLow=0
LabGridAHigh=0
LabGridBHigh=0
LabRegionA_1=0
LabRegionB_1=0
LabRegionSaturation_1=0
LabRegionSlope_1=1
LabRegionOffset_1=0
LabRegionPower_1=1
LabRegionHueMask_1=1;0.16666666699999999;1;0.34999999999999998;0.34999999999999998;0.82877752459999998;1;0.34999999999999998;0.34999999999999998;
LabRegionChromaticityMask_1=1;0;1;0.34999999999999998;0.34999999999999998;1;1;0.34999999999999998;0.34999999999999998;
LabRegionLightnessMask_1=1;0;1;0.34999999999999998;0.34999999999999998;1;1;0.34999999999999998;0.34999999999999998;
LabRegionMaskBlur_1=0
LabRegionChannel_1=-1
LabRegionsShowMask=-1

[RAW]
DarkFrame=/szeva
DarkFrameAuto=false
FlatFieldFile=/szeva
FlatFieldAutoSelect=false
FlatFieldFromMetaData=false
FlatFieldBlurRadius=32
FlatFieldBlurType=Area Flatfield
FlatFieldAutoClipControl=false
FlatFieldClipControl=0
CA=true
CAAvoidColourshift=true
CAAutoIterations=2
CARed=0
CABlue=0
HotPixelFilter=false
DeadPixelFilter=false
HotDeadPixelThresh=100
PreExposure=1

[RAW Bayer]
Method=amaze
Border=4
ImageNum=1
CcSteps=0
PreBlack0=0
PreBlack1=0
PreBlack2=0
PreBlack3=0
PreTwoGreen=true
LineDenoise=0
LineDenoiseDirection=3
GreenEqThreshold=0
DCBIterations=2
DCBEnhance=true
LMMSEIterations=2
DualDemosaicAutoContrast=true
DualDemosaicContrast=20
PixelShiftMotionCorrectionMethod=1
PixelShiftEperIso=0
PixelShiftSigma=1
PixelShiftShowMotion=false
PixelShiftShowMotionMaskOnly=false
pixelShiftHoleFill=true
pixelShiftAverage=false
pixelShiftMedian=false
pixelShiftGreen=true
pixelShiftBlur=true
pixelShiftSmoothFactor=0.69999999999999996
pixelShiftEqualBright=false
pixelShiftEqualBrightChannel=false
pixelShiftNonGreenCross=true
pixelShiftDemosaicMethod=amaze
PDAFLinesFilter=false

[RAW X-Trans]
Method=3-pass (best)
DualDemosaicAutoContrast=true
DualDemosaicContrast=20
Border=7
CcSteps=0
PreBlackRed=0
PreBlackGreen=0
PreBlackBlue=0

[MetaData]
Mode=1
ExifKeys=Exif.Image.Artist;Exif.Image.Copyright;Exif.Image.ImageDescription;Exif.Image.Make;Exif.Image.Model;Exif.Image.XResolution;Exif.Image.YResolution;Exif.Photo.DateTimeOriginal;Exif.Photo.ExposureBiasValue;Exif.Photo.ExposureTime;Exif.Photo.FNumber;Exif.Photo.Flash;Exif.Photo.FocalLength;Exif.Photo.ISOSpeedRatings;Exif.Photo.LensModel;Exif.Photo.UserComment;

[Film Negative]
Enabled=false
RedRatio=1.3600000000000001
GreenExponent=1.5
BlueRatio=0.85999999999999999
ColorSpace=1
RefInput=0;0;0;
RefOutput=2739.961181640625;2740.07568359375;2739.944580078125;

[RAW Preprocess WB]
Mode=1
